src/symbolic/emblems/emblem-default-symbolic.svg

<svg xmlns="http://www.w3.org/2000/svg" width="16" height="16" version="1.1">
 <path style="fill:#444444" d="M 8 1 A 7 7 0 0 0 1 8 A 7 7 0 0 0 8 15 A 7 7 0 0 0 15 8 A 7 7 0 0 0 14.447 5.291 L 7.2793 13.5 L 3.5 9.75 C 3.12 9.37 3.12 8.6905 3.5 8.3105 C 3.88 7.9305 4.5595 7.9305 4.9395 8.3105 L 7.1895 10.561 L 13.355 3.5039 A 7 7 0 0 0 8 1 z"/>
</svg>

<svg xmlns="http://www.w3.org/2000/svg" width="16" height="16"><path d="M8 1a7 7 0 0 0-7 7 7 7 0 0 0 7 7 7 7 0 0 0 7-7 7 7 0 0 0-.553-2.709L7.279 13.5 3.5 9.75c-.38-.38-.38-1.06 0-1.44.38-.38 1.06-.38 1.44 0l2.25 2.251 6.165-7.057A7 7 0 0 0 8 1z" fill="#444"/></svg>
